X:1
T:Filli tu posi
T:Filli tu posi
T:Bartolomeo Spighi da Prato
C:Bartolomeo Spighi da Prato
%%score 1 { 2 | 3 }
L:1/8
Q:1/4=120
M:3/2
K:F
V:1 treble-8 nm="Tenor" snm="T"
V:2 treble nm="MusicXML Part"
V:3 bass 
V:1
"^Source: Musical Concerto d'arie e canzonette---Fiorenza---Z.Pignoni---1641.\nEditor: André Vierendeels (09/12/08)\nContinuo: André Vierendeels" B6 B2 =B4 | %1
w: Fil- li tu|
w: Fil- li per|
w: Fil- li tu|
w: |
 c2 B2 c2 d2"^ARIETTA" _e2 c2 | B6 A2 G4 | _A2 G2 F8 |[M:4/4] _E4 z2 BB | B6 AB | G4 G4 | %7
w: po- * * * * *||si et i-|o pian- go|mi- ser e|so- lo|
w: l'a- * * * * *||ri- a bru-|na es- co|ta- ci- to'a-|man- te|
w: fra _ _ _ _ _|_ _ _|* le piu-|me po- s'il|can- di- do|fian- co|
w: ||||||
[M:3/2] z4 _e4 d4 | c4 f4"^b" e4 | d2 _e2 d2 c2 B2"^b" A2 | G12 | c4 f4"^b" e4 | d12 | c4 G4 G4 | %14
w: ques- ta|so- gl'e guan-|cial _ _ _ _ _|_|del vol- to|mi-|o son com-|
w: e men-|tre splen- de'in|ciel _ _ _ _ _|_|ge- li- da|lu-|na in- nan-|
w: io men-|tre man- c'al|sol _ _ _ _ _|_|ful- gi do|lu-|me ve- glio'e|
w: |||||||
 _A4 A4 B2 A2 | G8 d4 | _e4 e4 e4 | _e8 d4 |[M:4/4] _e4 z2 B"^b"A | G2 FG _A4- | Acde f4 | %21
w: pa- gni del _|cor la|fed' el du-|o- *|lo per te|scorg' e'il pen- sier|_ tu non mi mi-|
w: zi'al- lus- cio _|tu- o|fer- mo le|pian- *|te ma non|so se tu dor-|* mi'o se tu sen-|
w: ti chia- * *|||||||
w: |mo'ad- do-|lo- ra- to'e|flan- *|co ah se|non m'o- di'al- men,|_ ti di- co'A- mo-|
 d4 z2 =BB | =B2 BB c4- | c2 _A2 _d<c B<A | B4 _A4 ::[M:3/2] z4 _A4 G4 | F4 B4 A4 | G4 _e4 d4 | %28
w: ri per non|leg- ger nel vol-|* t'i miei _ mar- *|tir- i,|che fai|tu sen- ti|tu vi- ta|
w: ti, o se|fin- gi dor- mi-|* re'a miei _ la- *|men- ti,||||
w: |||||||
w: re, che col|dir non ha fi-|* ne'il mio _ do- *|lo- re,||||
 d12 | c4 _e4 d4 | c4 f4"^b" e4 | d4 g4 g4 | f12 | _e4 B4 B4 | c4 c4 d4 | B6 A2 B2 c2 | %36
w: mi-|a, che fai|tu sen- ti,|tu vi- ta|mi-|a chi t'a-|do- ra ti|chiam _ _ _|
w: ||||||||
w: ||||||||
w: ||||||||
 A6 G2 A2 B2 | G4 _e4 f4 | e4 d8 | c12 :| B12 | c4 c2 B2"^b" A2 G2 | F12 | _E12 |] %44
w: _ _ _ _|* e ti|de- si-|a,|e|ti de- * * *|si-|a.|
w: ||||||||
w: ||||||||
w: ||||||||
V:2
 [GB]8 [F=B]4 | [_EGc]12 | [DB]8 [Gc]4 | [_Ec]4 [EB]4 [DB]4 |[M:4/4] [GB]8 | [FB]4 [FA]4 | %6
 [_EGB]8 |[M:3/2] [_Ec]12 | [_Ac]12 | [DB]12 | [GB]12 | [_Ec]4 [_Ac]8 | [DG=B]12 | [EGc]12 | %14
 [F_Ac]8 [FB]4 | [_EB]8 [FA]4 | [_EG]8 [CE]4 | [FB]12 |[M:4/4] [GB]8 | [GB]4 [C_E]4 | %20
 [_Ec]4 [_Ac]4 | [D=B]8- | [DB]4 [Gc]4 | [FAc]4 [_DFB]4 | [GB]4 [_Ec]4 ::[M:3/2] [C_E]12 | [DB]12 | %27
 [GB]8 [D_A]4 | [DB]12 | [_EG]12 | [FAc]12 | [DB]4 [GB]8 | [DFB]12 | [GB]12 | [_Ec]4 [E_A]4 [FA]4 | %35
 [DB]4 [GB]8 | [FA]12 | [GB]4 [Gc]4 [FAc]4 | [EG]4 [DGB]8 | %39
 [EGc]12"^Notes: original keys: Ut 4rth, Fa 4rth\n            editorial accidentals above the staff" :| %40
 [DG]8 [GB]4 | [_Ec]12 | [DFB]12 | [GB]12 |] %44
V:3
 _E,8 D,4 | C,12 | G,6 F,2 _E,4 | _A,,4 B,,8 |[M:4/4] _E,8 |"^6" D,4"^5" D,4 | _E,8 | %7
[M:3/2] _A,,12 | F,12 | G,12 | _E,6 F,2 G,2 E,2 | _A,4 F,8 |"^-natural" G,12 | C,12 | F,8 D,4 | %15
 _E,8 D,4 | C,8 _A,,4 | B,,12 |[M:4/4] _E,8 | _E,4 _A,,4 | _A,4 F,4 |"^-natural" G,8 | %22
"^b" G,4"^6" E,4 | F,4 B,,4 | _E,4 _A,,4 ::[M:3/2] _A,,12 | B,,12 | _E,8 F,4 | G,12 | C,12 | F,12 | %31
 G,4 _E,8 | B,,12 | _E,12 | _A,4 A,4 F,4 | G,4 _E,8 | F,4 D,8 | _E,4 C,4 F,4 | C4"^-natural" G,8 | %39
 C,12 :| G,6 F,2 _E,4 | _A,,12 | B,,12 | _E,12 |] %44

